icons/inbox-fill-24.svg

<svg width="24" height="24" viewBox="0 0 24 24" fill="none" xmlns="http://www.w3.org/2000/svg">
<path fill-rule="evenodd" clip-rule="evenodd" d="M4.80111 3.5709C5.07434 2.92198 5.70987 2.5 6.41397 2.5H17.5877C18.2903 2.5 18.9248 2.9202 19.199 3.56709L22.9405 12.3948C22.9798 12.4874 23 12.5869 23 12.6875V20.25C23 21.2165 22.2165 22 21.25 22H2.75C1.7835 22 1 21.2165 1 20.25V12.75C1 12.65 1.01998 12.5511 1.05877 12.459L4.80111 3.5709ZM6.41397 4C6.31339 4 6.2226 4.06028 6.18357 4.15299L2.87956 12H8C8.26675 12 8.51343 12.1417 8.64783 12.3721L10.1808 15H13.8192L15.3522 12.3721C15.4852 12.144 15.7284 12.0027 15.9925 12L21.1223 11.9487L17.8179 4.15244C17.7787 4.06003 17.6881 4 17.5877 4H6.41397Z"/>
</svg>

<svg xmlns="http://www.w3.org/2000/svg" width="24" height="24" viewBox="0 0 24 24"><path d="M4.801 3.57A1.75 1.75 0 0 1 6.414 2.5h11.174c.702 0 1.337.42 1.611 1.067l3.741 8.828c.04.092.06.192.06.293v7.562A1.75 1.75 0 0 1 21.25 22H2.75A1.75 1.75 0 0 1 1 20.25v-7.5c0-.1.02-.199.059-.291L4.8 3.571ZM6.414 4a.25.25 0 0 0-.23.153L2.88 12H8a.75.75 0 0 1 .648.372L10.18 15h3.638l1.533-2.628a.75.75 0 0 1 .64-.372l5.13-.051-3.304-7.797a.25.25 0 0 0-.23-.152H6.414Z"/></svg>
